src/pos-icons/account-multiple-remove-outline.svg

<svg height="24" viewBox="0 0 24 24" width="24" xmlns="http://www.w3.org/2000/svg"><path d="m24 17v2h-3v-2c0-1.55-.7-2.94-1.82-3.94 4.82.49 4.82 3.94 4.82 3.94m-6-12c1.66 0 3 1.34 3 3s-1.34 3-3 3c-.31 0-.62-.05-.9-.14.57-.81.9-1.79.9-2.86 0-1.06-.33-2.05-.9-2.86.28-.09.59-.14.9-.14m-5 0c1.66 0 3 1.34 3 3s-1.34 3-3 3-3-1.34-3-3 1.34-3 3-3m6 12v2h-12v-2c0-2.21 2.69-4 6-4s6 1.79 6 4m-6-10c-.55 0-1 .45-1 1s.45 1 1 1 1-.45 1-1-.45-1-1-1m0 8c-2.21 0-4 .9-4 2h8c0-1.1-1.79-2-4-2m-12.536-1.88 2.126-2.12-2.126-2.12 1.416-1.42 2.12 2.13 2.12-2.13 1.42 1.42-2.13 2.12 2.13 2.12-1.42 1.42-2.12-2.13-2.12 2.13z"/></svg>

<?xml version="1.0" encoding="UTF-8"?><!DOCTYPE svg PUBLIC "-//W3C//DTD SVG 1.1//EN" "http://www.w3.org/Graphics/SVG/1.1/DTD/svg11.dtd"><svg xmlns="http://www.w3.org/2000/svg" xmlns:xlink="http://www.w3.org/1999/xlink" version="1.1" id="mdi-account-multiple-remove-outline" width="24" height="24" viewBox="0 0 24 24"><path d="M24 17V19H21V17C21 15.45 20.3 14.06 19.18 13.06C24 13.55 24 17 24 17M18 5C19.66 5 21 6.34 21 8C21 9.66 19.66 11 18 11C17.69 11 17.38 10.95 17.1 10.86C17.67 10.05 18 9.07 18 8C18 6.94 17.67 5.95 17.1 5.14C17.38 5.05 17.69 5 18 5M13 5C14.66 5 16 6.34 16 8C16 9.66 14.66 11 13 11C11.34 11 10 9.66 10 8C10 6.34 11.34 5 13 5M19 17V19H7V17C7 14.79 9.69 13 13 13C16.31 13 19 14.79 19 17M13 7C12.45 7 12 7.45 12 8C12 8.55 12.45 9 13 9C13.55 9 14 8.55 14 8C14 7.45 13.55 7 13 7M13 15C10.79 15 9 15.9 9 17H17C17 15.9 15.21 15 13 15M.464 13.12L2.59 11L.464 8.88L1.88 7.46L4 9.59L6.12 7.46L7.54 8.88L5.41 11L7.54 13.12L6.12 14.54L4 12.41L1.88 14.54Z" /></svg>
